X:419
T:Little Man In A Fix
T:Bitte mand i knibe
O:Denmark
%%subtitlefont Times-Roman 24
%%MIDI beat 100 95 80
S:Colin Hume's website,  colinhume.com  - chords can also be printed below the stave.
Q:1/4=140
M:3/4
L:1/8
K:G
P:A
|: DGB | "G"Ldd dc BA | "G"LGG GB AG | "D7"LFF Fc BA | "G"LGG GD GB |\
"G"Ldd dc BA | "G"LGG GB AG | "D7"LFF Fc BA | "G"LG3 :|
P:B
|: zD2 | "C"E2 G2 FE | "G"D2 B2 AG | "D7"F2 c2 BA | "G"G2 B2 D2 |\
"C"E2 G2 FE | "G"D2 B2 AG | "D7"F2 c2 BA | "G"G3 :|

